X:1
T:Title
%%score 1 { 2 | 3 }
L:1/8
Q:1/4=83
M:4/8
K:G
V:1 treble nm="Grand Piano, Soprano"
V:2 treble nm="Choir Pad, Bass"
V:3 bass 
V:1
 [GB][FA] G2 | [Fc][GB] [FA]2 | [Gd][Fc][GB][EG] | [DF][^CE] D2 | [GB][FA] G2 | [Fc][GB] [FA]2 | %6
w: By~George~Frederick~Root * *||||||
 [Gd][Fc][GB][EG] | [EA][DF] [DG]2 | [FA][FA][FA][GB] | [Bd][Ac] [FA]2 | [GB][Gc][Gd]G | %11
w: |||||
 [GB][FA] G2- | G4 |] %13
w: ||
V:2
 DC B,2 | DD D2 | DDD[K:bass]B, | A,G, F,2 | D[K:treble]C B,2 | DD D2 | DDD[K:bass]B, | CA, B,2 | %8
 D[K:treble]DDD | DD D2 | DED[K:bass]B, | DC B,2- | B,4 |] %13
V:3
 G,D, G,,2 | D,D, D,2 | B,,A,,A,,G,, | A,,A,, D,2 | G,D, G,,2 | D,D, D,2 | B,,A,,G,,E, | %7
 C,D, G,,2 | D,D,D,D, | D,D, D,2 | G,E,B,,E, | D,D, G,,2- | G,,4 |] %13

